Adwaita++-Dark/actions/16/snap.svg

<svg height="16" viewBox="0 0 16 16" width="16" xmlns="http://www.w3.org/2000/svg">
  <path d="m2.9550781.42382812-2.5332031 2.53320308 2.5605469 2.5585938 2.5332031-2.5332031zm2.3828125 4.20898438-.7070312.7070313 3.984375 3.984375-1.6464844 1.6464842h4v-3.9999999l-1.6464844 1.6445313zm7.6796874 5.8515625-2.533203 2.535156 2.560547 2.558594 2.533203-2.53125z" fill="#e6ddff"/>
</svg>

<svg xmlns="http://www.w3.org/2000/svg" width="16" height="16" viewBox="0 0 16 16">
 <defs>
  <style id="current-color-scheme" type="text/css">
   .ColorScheme-Text { color:#E6DDFF; } .ColorScheme-Highlight { color:#4285f4; }
  </style>
 </defs>
 <path style="fill:currentColor" class="ColorScheme-Text" d="M 2.9550781 0.42382812 L 0.421875 2.9570312 L 2.9824219 5.515625 L 5.515625 2.9824219 L 2.9550781 0.42382812 z M 5.3378906 4.6328125 L 4.6308594 5.3398438 L 8.6152344 9.3242188 L 6.96875 10.970703 L 10.96875 10.970703 L 10.96875 6.9707031 L 9.3222656 8.6152344 L 5.3378906 4.6328125 z M 13.017578 10.484375 L 10.484375 13.019531 L 13.044922 15.578125 L 15.578125 13.046875 L 13.017578 10.484375 z"/>
</svg>
